X: 19674
T: Jennie Rocking The Cradle
R: reel
M: 4/4
K: Dmajor
|:DFFD ADFA|DFAF ABAF|D3F ADFA|BEEF G2FE:|
|:DFAF BFAF|DFAF ABAF|DFAF BFAF|BEEF G2FE:|
|:DFAB =cBAF|DFAF A3F|DFAB =cBAc|BEEF G2FE||
DFAB =cBAF|DFAF A2B^c|dBcA BGAF|GFEF G2FE||
|:D2df ecdB|AFdF ABAF|D2df ecdA|1 BEEF G2FE:|2 BEEF G3g||
|:fd d2 Ad d2|fd d2 fgag|fd d2 Ad d2|1 eAce g2fe:|2 eAce g3e||
|:fdec dBAF|AFBF A3g|fdec dAFA|1 BEEF G2eg:|2 BEEF GABc||
|:dAFA DAFA|dAFA ^GABc|1 dAFA DAFA|BEEF G2Bc:|2 dBcA BGAF|GFEF G2FE||

